X:1
T:Gettysburg March
M:4/4
L:1/4
R:Traditional
C:S.B. Stambaugh (1911)
F:https://www.youtube.com/watch?v=hAdy88s6kHQ
K:Abmaj
"Ab" c4 | A2 F2 | E4 | A2 c2 | "Eb7" e4 | B2 =B2 | "Ab" c4 | "Ab7" z A G _G |
"Db" F4 | G2 F2 | "Ab" E2 A2 | d2 c2 | "Bb7" c4 | B2 =A2 | "Eb7" B4-|B E/2F/2 G/2A/2B/2=B/2|
"Ab" c4 | A2 F2 | E4 | A2 c2 | "Eb7" e4 | B2 =B2 | "Ab" c4 | "Ab7" z A G _G |
"Db" F4 | G2 F2 | "Ab" E2 A2 | d2 c2 | "Bb7" c4 | "Eb7" B4 | "Ab" A4-|A z z2 |]